X:58
T:Polska efter Hult Linrodt
Z:Glenn Lee
R:Polska
L:1/8
M:2/4
Q:80
K:G
%P:A
"G"BB G2 | B2 B/d/c/B/ | "D"AA "G"B2 | BG "Em"E>F | "C"GF ED | E4 "(4x)":|
%P:B
"G"dd/B/ GB/G/ | "D"FA/F/ "G"G>F | GA B/ z/ B/c/ | dd/B/ GB/G/ |
"D"FA/F/ "Em"GF | E3 B/c/ | "G"dd/B/ GB/G/ | "D"FA/F/ "G"G>F |GA B z |
"C"E>F GF | ED (E2 | E4):|

